X:6
T:Inisheer
Z: id:dc-waltz-4
M:3/4
L:1/8
K:G Major
D2|B3 A Bd|B3 A Bd|E3 B AB|D3 E GA|!
B3 A Bd|B3 A Bd|G3 B AF|G4:|!
Bd|e3 f ed|B3 A Bd|gf ed Bd|e3 f gf|!
e3 f ed|B3 A Bd|G3 B AF|G4:|!

